X: 12
M: 1/4
L: 1/16
K: D
V: 1
(D3E/F/) ([E3A,2]F/G/) | ([F3A,2]G/A/) D2F2 | {F}E2D2C2D2 | (EDCB,) (A,B,CA,) |\
(D3E/F/) ([E3A,2]F/G/) | ([F3A,2]G/A/) D2F2 | E2D2 (CDEC) | {C}D6 :|
"_Doucement"A2 |\
(A^G) e4 =G2 | (FA) d4 A2 | (BAGF) E2D2 | (CDEC) A,2A2 |\
(A^G) e4 =G2 | (FA) d4 A2 | (BAGF) (EDEC) | {C}D6 |
|: [M:6/8][L:1/8] "_Vivement"A, |\
|: [M:3/4][L:1/8] "_Gracieusement"\
V: 2 clef=bass middle=d
z2 |\
z2d2c2A2 | d2D2 z2d2 | g2f2e2d2 | a4 A4 |
z2d2c2A2 | d2D2 z2d2 | g2f2e2a2 | d2A2D2 :| "_Doucement"z2 | z2a2c'2a2 |
z2d2f2d2 | g4^g4 | a4A4 | z2a2c'2a2 | z2d2f2d2 |
g2e2a2A2 | d2A2D2 |: [M:6/8][L:1/8] "_Vivement"z | d2z D2z | d2z D2z | d2F G2A | d2z D2z |
d2z D2z | d2z D2z | d2f g2a | dAF D2 :||: [M:3/4][L:1/8] "_Gracieusement"d2f2d2 | G2g2f2 |
e2a2g2 | f2d2z2 | d2f2d2 | G2g2f2 | e2a2A2 | d2A2D2 :|


